pieces/shapes/rw.svg

<svg height="200" viewBox="0 0 200 200" width="200" xmlns="http://www.w3.org/2000/svg"><filter id="a" height="150%" width="150%"><feGaussianBlur in="SourceAlpha" result="blur" stdDeviation="3"/><feColorMatrix in="blur" result="blurAlpha" values="2 0 0 0 0 0 2 0 0 0 0 0 2 0 0 0 0 0 0.5 0"/><feOffset dx="4.5" dy="4.5" in="blurAlpha" result="offsetBlur"/><feBlend in="SourceGraphic" in2="offsetBlur"/></filter><path d="M75 15h50v60h60v50h-60v60H75v-60H15V75h60z" fill="#fff" fill-rule="evenodd" stroke="#000" stroke-width="6" stroke-linejoin="bevel" filter="url(#a)"/></svg>

<svg width="200" height="200" viewBox="0 0 200 200" fill="none" xmlns="http://www.w3.org/2000/svg">
<path fill-rule="evenodd" clip-rule="evenodd" d="M75 15H125V75H185V125H125V185H75V125H15V75H75V15Z" fill="white" stroke="black" stroke-width="6" stroke-linejoin="bevel"/>
</svg>
